assets/icons/action/new_notebook.svg

<?xml version="1.0"?><svg xmlns="http://www.w3.org/2000/svg" width="52" height="52" viewBox="0 0 52 52"><path fill="#fff" d="m44 2h-30c-2.2 0-4 1.8-4 4v3h-3c-1.7 0-3 1.3-3 3s1.3 3 3 3h3v8h-3c-1.7 0-3 1.3-3 3s1.3 3 3 3h3v8h-3c-1.7 0-3 1.3-3 3s1.3 3 3 3h3v3c0 2.2 1.8 4 4 4h30c2.2 0 4-1.8 4-4v-40c0-2.2-1.8-4-4-4z m-7 34c0 0.6-0.4 1-1 1h-14c-0.6 0-1-0.4-1-1v-2c0-0.6 0.4-1 1-1h14c0.6 0 1 0.4 1 1v2z m2-8c0 0.6-0.4 1-1 1h-18c-0.6 0-1-0.4-1-1v-2c0-0.6 0.4-1 1-1h18c0.6 0 1 0.4 1 1v2z m2-10c0 0.6-0.4 1-1 1h-22c-0.6 0-1-0.4-1-1v-6c0-0.6 0.4-1 1-1h22c0.6 0 1 0.4 1 1v6z"></path></svg>

<svg xmlns="http://www.w3.org/2000/svg" x="0px" y="0px"
	 width="52px" height="52px" viewBox="0 0 52 52" enable-background="new 0 0 52 52" xml:space="preserve">
<path fill="#FFFFFF" d="M44,2H14c-2.2,0-4,1.8-4,4v3H7c-1.7,0-3,1.3-3,3s1.3,3,3,3h3v8H7c-1.7,0-3,1.3-3,3s1.3,3,3,3h3v8H7
	c-1.7,0-3,1.3-3,3s1.3,3,3,3h3v3c0,2.2,1.8,4,4,4h30c2.2,0,4-1.8,4-4V6C48,3.8,46.2,2,44,2z M37,36c0,0.6-0.4,1-1,1H22
	c-0.6,0-1-0.4-1-1v-2c0-0.6,0.4-1,1-1h14c0.6,0,1,0.4,1,1V36z M39,28c0,0.6-0.4,1-1,1H20c-0.6,0-1-0.4-1-1v-2c0-0.6,0.4-1,1-1h18
	c0.6,0,1,0.4,1,1V28z M41,18c0,0.6-0.4,1-1,1H18c-0.6,0-1-0.4-1-1v-6c0-0.6,0.4-1,1-1h22c0.6,0,1,0.4,1,1V18z"/>
</svg>
